!!!OTL: 1023. Das rothe Regiment. / [Hess. Soldatenlied.]
!!!ODT: 1845
!!!ARE: Europa, Mitteleuropa, Deutschland, Hessen, Odenwald
!!!SCT: E1323
!!!TXL: @@NDS
!!!YEM: Copyright 1995, estate of Helmut Schaffrath.
**kern	**text
*ICvox	*
*M6/8	*
*k[f#]	*
*G:	*
!LO:TX:a:t=Aus dem Odenwald. 1845.	!
{8d	Vi-
=1	=1
4g	-vat,
8g	es
8gL	leb
8aJ	.
8b	ein
=2	=2
8bL	Jn-
8aJ	.
8a	-fan-
8aL	-trie,
8bJ}	.
{8cc	das
=3	=3
8ddL	ro-
8eeJ	.
8dd	-the
8ccL	Re-
8bJ	.
8a	-gi-
=4	=4
[4.b	-ment!
8b]	.
8r}	.
{16bL	das
16ccJ	.
=5	=5
4dd	aus-
8b	-er-
8ddL	-wähl-
8eeJ	.
8dd	-te
=6	=6
[4.cc	Chor,
8cc]	.
8r}	.
{8b	das
=7	=7
8bL	hat
8aJ	.
8a	ein'n
8dd	Mo-
8dd	-nat
8cc	ʒu-
=8	=8
(4b	-vor
8a\	.
8b)	.
8r}	.
{16bL	in
16aJ	.
=9	=9
4g	Ta-
8g	-pfer-
8gL	-keit
8aJ	.
8b	in
=10	=10
8bL	Kriege
8aJ	.
8a	und
8aL	Streit
8bJ}	.
{8cc	ſein'n
=11	=11
8ddL	Ruhm
8eeJ	.
8dd	ge-
8cc	-tra-
8b	-gen
8a	da-
=12	=12
[4.b	-von.
8b]	.
8r}	.
==	==
!!!AGN: Staende -, Soldaten -, Kriegs - Lied
!!!ONB: ESAC (Essen Associative Code) Database: ERK3
!!!AMT: compound duple
!!!AIN: vox
!!!EED: Helmut Schaffrath
!!!EEV: 1.0
!!!GTL: Staendelieder (Berufslieder). 1. Soldaten- und Kriegslieder. Soldatenlieder seit dem 30jaehr. Kriege.
!!!URL-scan: https://rosdok.uni-rostock.de/mcrviewer/recordIdentifier/rosdok_ppn745177999/iview2/phys_0211.iview2?x=-128.77276441889308&y=1300.2892046577763&scale=0.5870222003877485&rotation=0&layout=singlePageLayout
!!!ENC: Anna Maria Matuszewska
!!!EEV: 2024/12/27
*-	*-
